X:1
@@indent 1cm
T: North Carolina Breakdown
C: Arthur L. Smith
Z: Portland Collection
M: C|
L: 1/8
K: G
|: D2 |"G" G2G2 EDEF|"G" GFGA Bdef|"C" g2 f2 edef|"D" gage dBAF|
|"G" G2G2 EDEF|"G" GFGA Bdef|"C" g2 f2 edBA|"D" dBAF G2 :|
|: d2 |"C" g2

